src/assets/logo/logoAdmin.svg

<svg width="278" height="42" viewBox="0 0 278 42" fill="none" xmlns="http://www.w3.org/2000/svg">
<rect x="10" y="32" width="267" height="5" rx="2.5" fill="#FFB5B5"/>
<circle cx="9.977" cy="31.7733" r="3.22675" fill="#132743"/>
<ellipse cx="10.043" cy="10.5841" rx="7.87801" ry="7.09622" fill="white"/>
<path d="M10.0265 0.0620117C4.47973 0.0620117 0.00219727 4.53954 0.00219727 10.0863C0.00219727 16.7692 10.014 26.7783 10.014 26.7783C10.014 26.7783 20.0508 16.7692 20.0508 10.0863C20.0508 4.53954 15.5733 0.0620117 10.0265 0.0620117ZM10.0265 3.40345C13.7355 3.40345 16.7094 6.41075 16.7094 10.0863C16.7094 13.7953 13.7355 16.7692 10.0265 16.7692C6.35093 16.7692 3.34364 13.7953 3.34364 10.0863C3.34364 6.41075 6.35093 3.40345 10.0265 3.40345Z" fill="#FFB5B5"/>
<path d="M20.1023 10.0141C20.1023 15.5447 13.4633 23.2549 10.0141 26.7783C22.9316 -11.9548 1.56351 17.8648 0 10.0141C0 4.48345 4.50005 0 10.0511 0C15.6022 0 20.1023 4.48345 20.1023 10.0141Z" fill="#132743"/>
<path d="M34.1932 34L27.625 10.7273H32.1591L36.3523 27.8295H36.5682L41.0455 10.7273H45.1705L49.6591 27.8409H49.8636L54.0568 10.7273H58.5909L52.0227 34H47.8636L43.2045 17.6705H43.0227L38.3523 34H34.1932ZM65.446 23.7727V34H61.3324V10.7273H65.3551V19.5114H65.5597C65.9688 18.5265 66.6013 17.75 67.4574 17.1818C68.321 16.6061 69.4195 16.3182 70.7528 16.3182C71.965 16.3182 73.0218 16.572 73.9233 17.0795C74.8248 17.5871 75.5218 18.3295 76.0142 19.3068C76.5142 20.2841 76.7642 21.4773 76.7642 22.8864V34H72.6506V23.5227C72.6506 22.3485 72.3475 21.4356 71.7415 20.7841C71.143 20.125 70.3021 19.7955 69.2188 19.7955C68.4915 19.7955 67.84 19.9545 67.2642 20.2727C66.696 20.5833 66.2491 21.0341 65.9233 21.625C65.6051 22.2159 65.446 22.9318 65.446 23.7727ZM88.6847 34.3409C86.9347 34.3409 85.4233 33.9773 84.1506 33.25C82.8854 32.5152 81.9119 31.4773 81.2301 30.1364C80.5483 28.7879 80.2074 27.2008 80.2074 25.375C80.2074 23.5795 80.5483 22.0038 81.2301 20.6477C81.9195 19.2841 82.8816 18.2235 84.1165 17.4659C85.3513 16.7008 86.8021 16.3182 88.4688 16.3182C89.5445 16.3182 90.5597 16.4924 91.5142 16.8409C92.4763 17.1818 93.3248 17.7121 94.0597 18.4318C94.8021 19.1515 95.3854 20.0682 95.8097 21.1818C96.2339 22.2879 96.446 23.6061 96.446 25.1364V26.3977H82.1392V23.625H92.5028C92.4953 22.8371 92.3248 22.1364 91.9915 21.5227C91.6581 20.9015 91.1922 20.4129 90.5938 20.0568C90.0028 19.7008 89.3134 19.5227 88.5256 19.5227C87.6847 19.5227 86.946 19.7273 86.3097 20.1364C85.6733 20.5379 85.1771 21.0682 84.821 21.7273C84.4725 22.3788 84.2945 23.0947 84.2869 23.875V26.2955C84.2869 27.3106 84.4725 28.1818 84.8438 28.9091C85.215 29.6288 85.7339 30.1818 86.4006 30.5682C87.0672 30.947 87.8475 31.1364 88.7415 31.1364C89.34 31.1364 89.8816 31.053 90.3665 30.8864C90.8513 30.7121 91.2718 30.4583 91.6278 30.125C91.9839 29.7917 92.2528 29.3788 92.4347 28.8864L96.2756 29.3182C96.0331 30.3333 95.571 31.2197 94.8892 31.9773C94.215 32.7273 93.3513 33.3106 92.2983 33.7273C91.2453 34.1364 90.0407 34.3409 88.6847 34.3409ZM99.9261 34V16.5455H103.915V19.4545H104.097C104.415 18.447 104.96 17.6705 105.733 17.125C106.513 16.572 107.403 16.2955 108.403 16.2955C108.631 16.2955 108.884 16.3068 109.165 16.3295C109.453 16.3447 109.691 16.3712 109.881 16.4091V20.1932C109.706 20.1326 109.43 20.0795 109.051 20.0341C108.68 19.9811 108.32 19.9545 107.972 19.9545C107.222 19.9545 106.547 20.1174 105.949 20.4432C105.358 20.7614 104.892 21.2045 104.551 21.7727C104.21 22.3409 104.04 22.9962 104.04 23.7386V34H99.9261ZM119.622 34.3409C117.872 34.3409 116.361 33.9773 115.088 33.25C113.823 32.5152 112.849 31.4773 112.168 30.1364C111.486 28.7879 111.145 27.2008 111.145 25.375C111.145 23.5795 111.486 22.0038 112.168 20.6477C112.857 19.2841 113.819 18.2235 115.054 17.4659C116.289 16.7008 117.74 16.3182 119.406 16.3182C120.482 16.3182 121.497 16.4924 122.452 16.8409C123.414 17.1818 124.262 17.7121 124.997 18.4318C125.74 19.1515 126.323 20.0682 126.747 21.1818C127.171 22.2879 127.384 23.6061 127.384 25.1364V26.3977H113.077V23.625H123.44C123.433 22.8371 123.262 22.1364 122.929 21.5227C122.596 20.9015 122.13 20.4129 121.531 20.0568C120.94 19.7008 120.251 19.5227 119.463 19.5227C118.622 19.5227 117.884 19.7273 117.247 20.1364C116.611 20.5379 116.115 21.0682 115.759 21.7273C115.41 22.3788 115.232 23.0947 115.224 23.875V26.2955C115.224 27.3106 115.41 28.1818 115.781 28.9091C116.152 29.6288 116.671 30.1818 117.338 30.5682C118.005 30.947 118.785 31.1364 119.679 31.1364C120.277 31.1364 120.819 31.053 121.304 30.8864C121.789 30.7121 122.209 30.4583 122.565 30.125C122.921 29.7917 123.19 29.3788 123.372 28.8864L127.213 29.3182C126.971 30.3333 126.509 31.2197 125.827 31.9773C125.152 32.7273 124.289 33.3106 123.236 33.7273C122.183 34.1364 120.978 34.3409 119.622 34.3409ZM130.398 29.6818V26.3295L140.273 10.7273H143.068V15.5H141.364L134.716 26.0341V26.2159H148.5V29.6818H130.398ZM141.5 34V28.6591L141.545 27.1591V10.7273H145.523V34H141.5ZM152.131 34V30.9545L160.21 23.0341C160.983 22.2538 161.627 21.5606 162.142 20.9545C162.657 20.3485 163.044 19.7614 163.301 19.1932C163.559 18.625 163.688 18.0189 163.688 17.375C163.688 16.6402 163.521 16.0114 163.188 15.4886C162.854 14.9583 162.396 14.5492 161.812 14.2614C161.229 13.9735 160.566 13.8295 159.824 13.8295C159.059 13.8295 158.388 13.9886 157.812 14.3068C157.237 14.6174 156.79 15.0606 156.472 15.6364C156.161 16.2121 156.006 16.8977 156.006 17.6932H151.994C151.994 16.2159 152.331 14.9318 153.006 13.8409C153.68 12.75 154.608 11.9053 155.79 11.3068C156.979 10.7083 158.343 10.4091 159.881 10.4091C161.441 10.4091 162.813 10.7008 163.994 11.2841C165.176 11.8674 166.093 12.6667 166.744 13.6818C167.403 14.697 167.733 15.8561 167.733 17.1591C167.733 18.0303 167.566 18.8864 167.233 19.7273C166.9 20.5682 166.313 21.5 165.472 22.5227C164.638 23.5455 163.468 24.7841 161.96 26.2386L157.949 30.3182V30.4773H168.085V34H152.131ZM183.159 34H178.659L186.852 10.7273H192.057L200.261 34H195.761L189.545 15.5H189.364L183.159 34ZM183.307 24.875H195.58V28.2614H183.307V24.875ZM209.091 34.3068C207.72 34.3068 206.492 33.9545 205.409 33.25C204.326 32.5455 203.47 31.5227 202.841 30.1818C202.212 28.8409 201.898 27.2121 201.898 25.2955C201.898 23.3561 202.216 21.7197 202.852 20.3864C203.496 19.0455 204.364 18.0341 205.455 17.3523C206.545 16.6629 207.761 16.3182 209.102 16.3182C210.125 16.3182 210.966 16.4924 211.625 16.8409C212.284 17.1818 212.807 17.5947 213.193 18.0795C213.58 18.5568 213.879 19.0076 214.091 19.4318H214.261V10.7273H218.386V34H214.341V31.25H214.091C213.879 31.6742 213.572 32.125 213.17 32.6023C212.769 33.072 212.239 33.4735 211.58 33.8068C210.92 34.1402 210.091 34.3068 209.091 34.3068ZM210.239 30.9318C211.11 30.9318 211.852 30.697 212.466 30.2273C213.08 29.75 213.545 29.0871 213.864 28.2386C214.182 27.3902 214.341 26.4015 214.341 25.2727C214.341 24.1439 214.182 23.1629 213.864 22.3295C213.553 21.4962 213.091 20.8485 212.477 20.3864C211.871 19.9242 211.125 19.6932 210.239 19.6932C209.322 19.6932 208.557 19.9318 207.943 20.4091C207.33 20.8864 206.867 21.5455 206.557 22.3864C206.246 23.2273 206.091 24.1894 206.091 25.2727C206.091 26.3636 206.246 27.3371 206.557 28.1932C206.875 29.0417 207.341 29.7121 207.955 30.2045C208.576 30.6894 209.337 30.9318 210.239 30.9318ZM222.77 34V16.5455H226.702V19.5114H226.906C227.27 18.5114 227.872 17.7311 228.713 17.1705C229.554 16.6023 230.558 16.3182 231.724 16.3182C232.906 16.3182 233.902 16.6061 234.713 17.1818C235.531 17.75 236.107 18.5265 236.44 19.5114H236.622C237.009 18.5417 237.66 17.7689 238.577 17.1932C239.501 16.6098 240.596 16.3182 241.861 16.3182C243.467 16.3182 244.777 16.8258 245.793 17.8409C246.808 18.8561 247.315 20.3371 247.315 22.2841V34H243.19V22.9205C243.19 21.8371 242.902 21.0455 242.327 20.5455C241.751 20.0379 241.046 19.7841 240.213 19.7841C239.221 19.7841 238.444 20.0947 237.884 20.7159C237.33 21.3295 237.054 22.1288 237.054 23.1136V34H233.02V22.75C233.02 21.8485 232.747 21.1288 232.202 20.5909C231.664 20.053 230.959 19.7841 230.088 19.7841C229.497 19.7841 228.959 19.9356 228.474 20.2386C227.99 20.5341 227.603 20.9545 227.315 21.5C227.027 22.0379 226.884 22.6667 226.884 23.3864V34H222.77ZM251.489 34V16.5455H255.602V34H251.489ZM253.557 14.0682C252.905 14.0682 252.345 13.8523 251.875 13.4205C251.405 12.9811 251.17 12.4545 251.17 11.8409C251.17 11.2197 251.405 10.6932 251.875 10.2614C252.345 9.82197 252.905 9.60227 253.557 9.60227C254.216 9.60227 254.777 9.82197 255.239 10.2614C255.708 10.6932 255.943 11.2197 255.943 11.8409C255.943 12.4545 255.708 12.9811 255.239 13.4205C254.777 13.8523 254.216 14.0682 253.557 14.0682ZM263.946 23.7727V34H259.832V16.5455H263.764V19.5114H263.969C264.37 18.5341 265.01 17.7576 265.889 17.1818C266.776 16.6061 267.87 16.3182 269.173 16.3182C270.378 16.3182 271.427 16.5758 272.321 17.0909C273.223 17.6061 273.92 18.3523 274.412 19.3295C274.912 20.3068 275.158 21.4924 275.151 22.8864V34H271.037V23.5227C271.037 22.3561 270.734 21.4432 270.128 20.7841C269.529 20.125 268.7 19.7955 267.639 19.7955C266.92 19.7955 266.279 19.9545 265.719 20.2727C265.166 20.5833 264.73 21.0341 264.412 21.625C264.101 22.2159 263.946 22.9318 263.946 23.7727Z" fill="#132743"/>
</svg>

<svg xmlns="http://www.w3.org/2000/svg" width="278" height="42" fill="none"><rect width="267" height="5" x="10" y="32" fill="#FFB5B5" rx="2.5"/><circle cx="9.977" cy="31.773" r="3.227" fill="#132743"/><ellipse cx="10.043" cy="10.584" fill="#fff" rx="7.878" ry="7.096"/><path fill="#FFB5B5" d="M10.027.062A10.01 10.01 0 0 0 .002 10.086c0 6.683 10.012 16.692 10.012 16.692S20.051 16.77 20.051 10.086A10.01 10.01 0 0 0 10.027.062m0 3.341a6.68 6.68 0 0 1 6.682 6.683 6.66 6.66 0 0 1-6.682 6.683 6.68 6.68 0 0 1-6.683-6.683c0-3.675 3.007-6.683 6.683-6.683"/><path fill="#132743" d="M20.102 10.014c0 5.53-6.639 13.24-10.088 16.764C22.932-11.955 1.564 17.865 0 10.014 0 4.484 4.5 0 10.051 0s10.051 4.483 10.051 10.014M34.193 34l-6.568-23.273h4.534l4.193 17.103h.216l4.477-17.103h4.125l4.49 17.114h.204l4.193-17.114h4.534L52.023 34h-4.16l-4.658-16.33h-.182L38.353 34zm31.253-10.227V34h-4.114V10.727h4.023v8.784h.205q.613-1.477 1.897-2.33 1.296-.863 3.296-.863 1.818 0 3.17.761 1.353.761 2.091 2.228.75 1.465.75 3.58V34h-4.113V23.523q0-1.761-.91-2.739-.897-.988-2.522-.988-1.09 0-1.955.477a3.34 3.34 0 0 0-1.34 1.352q-.478.886-.478 2.148M88.685 34.34q-2.626 0-4.534-1.091-1.9-1.102-2.92-3.114-1.024-2.022-1.024-4.761 0-2.693 1.023-4.727 1.035-2.046 2.886-3.182 1.853-1.148 4.353-1.148a8.8 8.8 0 0 1 3.045.523q1.442.51 2.546 1.59 1.113 1.08 1.75 2.75.636 1.66.636 3.955v1.262H82.139v-2.773h10.364q-.012-1.182-.511-2.102a3.7 3.7 0 0 0-1.398-1.466q-.886-.534-2.068-.534-1.262 0-2.216.613a4.2 4.2 0 0 0-1.489 1.591 4.6 4.6 0 0 0-.534 2.148v2.42q0 1.524.557 2.614.556 1.08 1.557 1.66 1 .567 2.34.567.898 0 1.626-.25a3.6 3.6 0 0 0 1.26-.761q.535-.5.808-1.239l3.84.432a6 6 0 0 1-1.386 2.66q-1.011 1.125-2.59 1.75-1.58.612-3.614.613M99.926 34V16.546h3.989v2.909h.182q.477-1.511 1.636-2.33 1.17-.83 2.67-.83.341 0 .762.034.431.024.716.08v3.784q-.262-.09-.83-.159a8 8 0 0 0-1.079-.08q-1.126 0-2.023.49a3.6 3.6 0 0 0-1.398 1.329q-.511.852-.511 1.966V34zm19.696.34q-2.625 0-4.534-1.09-1.898-1.102-2.92-3.114-1.023-2.022-1.023-4.761 0-2.693 1.023-4.727 1.034-2.046 2.886-3.182 1.853-1.148 4.352-1.148 1.614 0 3.046.523 1.443.51 2.545 1.59 1.114 1.08 1.75 2.75.636 1.66.637 3.955v1.262h-14.307v-2.773h10.363q-.011-1.182-.511-2.102a3.7 3.7 0 0 0-1.398-1.466q-.886-.534-2.068-.534-1.261 0-2.216.613a4.23 4.23 0 0 0-1.488 1.591 4.6 4.6 0 0 0-.535 2.148v2.42q0 1.524.557 2.614a3.97 3.97 0 0 0 1.557 1.66q1 .567 2.341.567.897 0 1.625-.25a3.6 3.6 0 0 0 1.261-.761q.534-.5.807-1.239l3.841.432a6 6 0 0 1-1.386 2.66q-1.012 1.125-2.591 1.75-1.58.612-3.614.613m10.776-4.658V26.33l9.875-15.603h2.795V15.5h-1.704l-6.648 10.534v.182H148.5v3.466zM141.5 34v-5.34l.045-1.5V10.726h3.978V34zm10.631 0v-3.046l8.079-7.92a38 38 0 0 0 1.932-2.08q.773-.909 1.159-1.76a4.35 4.35 0 0 0 .387-1.819q0-1.103-.5-1.886a3.33 3.33 0 0 0-1.376-1.228q-.875-.43-1.988-.431-1.148 0-2.012.477a3.3 3.3 0 0 0-1.34 1.33q-.466.862-.466 2.056h-4.012q0-2.215 1.012-3.852 1.011-1.637 2.784-2.534 1.784-.898 4.091-.898 2.34 0 4.113.875t2.75 2.398q.989 1.522.989 3.477 0 1.306-.5 2.568t-1.761 2.796q-1.25 1.534-3.512 3.716l-4.011 4.08v.158h10.136V34zm31.028 0h-4.5l8.193-23.273h5.205L200.261 34h-4.5l-6.216-18.5h-.181zm.148-9.125h12.273v3.386h-12.273zm25.784 9.432q-2.057 0-3.682-1.057t-2.568-3.068-.943-4.886q0-2.91.954-4.91.966-2.01 2.603-3.034 1.635-1.035 3.647-1.034 1.535 0 2.523.523.989.511 1.568 1.238.58.717.898 1.353h.17v-8.705h4.125V34h-4.045v-2.75h-.25q-.318.636-.921 1.352-.602.705-1.59 1.205-.99.5-2.489.5m1.148-3.375q1.306 0 2.227-.705.92-.716 1.398-1.988.477-1.274.477-2.966 0-1.694-.477-2.943-.466-1.25-1.387-1.944-.909-.693-2.238-.693-1.375 0-2.296.716t-1.386 1.977-.466 2.887q0 1.635.466 2.92.477 1.274 1.398 2.011.931.728 2.284.728M222.77 34V16.546h3.932v2.965h.204q.546-1.5 1.807-2.34 1.262-.853 3.011-.853 1.773 0 2.989.864 1.227.852 1.727 2.33h.182q.58-1.455 1.955-2.319 1.386-.875 3.284-.875 2.408 0 3.932 1.523 1.522 1.522 1.522 4.443V34h-4.125V22.92q0-1.625-.863-2.375-.864-.76-2.114-.76-1.488 0-2.329.93-.83.921-.83 2.399V34h-4.034V22.75q0-1.352-.818-2.16-.807-.806-2.114-.806-.886 0-1.614.455a3.2 3.2 0 0 0-1.159 1.261q-.432.807-.431 1.886V34zm28.719 0V16.546h4.113V34zm2.068-19.932a2.4 2.4 0 0 1-1.682-.647q-.705-.66-.705-1.58 0-.932.705-1.58.704-.659 1.682-.659.989 0 1.682.66.704.647.704 1.579 0 .92-.704 1.58-.693.647-1.682.647m10.389 9.705V34h-4.114V16.546h3.932v2.965h.205a5 5 0 0 1 1.92-2.33q1.33-.863 3.284-.863 1.807 0 3.148.773 1.353.772 2.091 2.238.75 1.467.739 3.557V34h-4.114V23.523q0-1.75-.909-2.739-.898-.988-2.489-.988-1.08 0-1.92.477-.83.465-1.307 1.352-.466.886-.466 2.148"/></svg>
